file/ola-cabs.svg

<svg clip-rule="evenodd" fill-rule="evenodd" viewBox="0 0 560 400" xmlns="http://www.w3.org/2000/svg"><g fill-rule="nonzero" stroke-width=".25" transform="matrix(.144085 0 0 .144085 99.9003 135.954)"><path d="m377.851 6.715c55.805-9.521 113.461-8.728 169.265 2.38 27.506 4.761 52.896 17.985 76.699 31.738 26.976 16.133 54.482 30.943 82.252 45.225 66.913 44.432 121.66 107.907 152.868 182.489 17.72 41.259 28.299 85.426 32.795 130.123 10.579 58.714 4.761 119.544-14.546 175.877-15.34 55.805-50.515 102.353-78.814 151.805-3.967 6.612-9.521 12.43-14.547 18.513-36.497 43.909-79.607 83.58-133.032 105.532 2.381-3.174 3.703-6.612 4.232-10.315-6.083 1.323-12.166 2.915-18.249 4.766 3.438-4.496 8.728-6.881 13.489-10.055 17.455-11.373 34.117-23.803 49.986-37.291 2.644-2.381 6.347-3.703 7.405-7.406-6.347 2.645-10.315 8.728-16.133 12.431-83.839 60.565-188.837 93.889-292.512 84.897-106.848-8.728-208.672-60.566-280.081-140.438-49.457-54.746-85.426-121.659-103.675-193.068-21.687-81.988-19.307-170.323 8.199-250.724 15.869-46.548 39.142-90.716 70.351-128.8 48.928-61.095 111.609-112.403 183.811-143.347 33.324-8.728 66.12-18.778 100.237-24.332m5.29 25.125c-75.905 13.489-147.314 49.458-205.235 100.237-62.152 54.218-109.229 125.627-134.089 204.177-8.993 44.696-18.514 90.186-17.985 135.941 9.521 67.97 30.151 135.676 68.764 193.068 26.448 39.672 61.623 73.26 101.295 99.179 2.116 1.322 4.496 2.38 6.612 3.174-23.274-16.398-43.11-36.763-63.475-56.598-66.119-66.913-103.146-160.803-102.881-254.692-.529-80.401 24.861-160.537 69.822-227.186 19.307-19.835 32.266-44.696 50.779-65.59 61.095-58.449 138.851-98.385 220.574-119.015 89.129-13.224 181.96 1.852 263.155 40.73 76.698 36.498 143.346 94.947 186.192 168.472 32.795 55.54 50.779 119.543 52.366 183.811 1.058-23.538 3.174-47.87-3.702-70.88-8.464-34.911-16.398-70.615-32.796-102.617-29.357-49.192-59.507-99.443-102.617-137.792-32.795-29.093-71.144-51.573-111.874-67.706-35.439-9.522-71.144-17.985-106.848-26.977-45.49-8.199-92.567-7.67-138.057.264m10.579 62.417c-69.293 16.927-133.032 52.631-187.514 97.856-15.605 14.811-30.415 30.944-38.879 51.045-1.851 4.496-2.909 9.521-5.818 13.752.793 0 2.116-.264 2.909-.529 15.075-20.893 30.944-41.258 49.986-58.713 53.689-49.987 125.098-79.079 197.565-85.162 81.723-7.405 165.298 12.959 234.591 56.069 23.803 13.488 46.019 29.621 65.061 49.457 33.853 34.911 58.185 79.079 72.202 125.627 14.811 42.845 26.977 88.335 21.159 134.09-7.67 48.402-8.728 98.914-28.564 144.669-16.926 26.183-32.531 53.165-49.986 78.814-56.863 64.532-129.858 117.428-213.962 138.057-7.934.793-15.075 5.289-23.274 4.496 8.199 1.851 15.604-2.909 23.803-2.909 81.459-15.075 157.364-57.133 213.962-117.428 52.895-56.334 88.6-129.594 98.121-206.557.264-31.737 0-63.21 0-94.947 1.058-17.984-3.967-35.44-8.199-52.895-21.952-83.311-74.847-156.835-143.346-208.408-20.101-14.811-40.73-29.357-64.004-38.878-67.442-29.357-143.082-36.234-215.813-27.506m-107.378 228.508c-32.531 40.994-48.135 95.212-41.258 147.049 3.967 31.211 16.133 60.566 32.53 87.013-2.115-1.586-6.347-5.025-8.463-6.612-5.025-1.851-5.025 3.968-2.645 6.612 12.695 24.861 33.589 44.433 55.805 61.095 19.307 10.579 37.556 23.279 58.185 31.472 24.596 8.728 50.515 14.547 76.698 12.431 30.151-2.915 60.83-8.204 88.071-22.216 28.299-13.753 52.102-35.705 72.996-58.979 14.811-15.075 16.397-37.291 27.505-54.482 12.431-20.894 14.811-46.019 15.076-69.822.529-25.654-4.761-51.044-12.166-75.376-3.703-16.926-13.224-31.737-22.481-46.019-29.886-42.052-73.26-75.64-124.04-87.542-78.549-20.1-166.356 11.637-215.813 75.376zm1915.078-146.52c70.88 126.684 141.23 254.162 211.85 381.111 28.57 51.838 57.92 103.146 85.95 155.248-46.81-.264-93.36.529-139.91-.264-52.1-95.212-105.52-189.63-157.63-284.842-39.14 66.648-76.43 134.354-114.52 201.267-15.6 27.77-31.74 55.271-46.81 83.31-46.01.794-92.04.265-138.05.529 28.83-51.837 57.92-103.675 86.75-155.512 70.61-126.949 141.75-253.898 212.37-380.847zm-552.76 3.967c39.68-.793 79.08-1.058 118.75 0-.53 109.494-.53 218.723-.53 328.216-.52 26.712 0 53.16-.26 79.872 51.3.265 102.62 0 153.92.265-23.01 41.258-47.61 82.252-70.62 123.775-67.17.529-134.35.27-201.79 0 .27-84.368.27-169.001.53-253.369-.26-93.096.53-185.928 0-278.759zm-528.95 121.131c47.08-74.054 132.77-121.66 220.84-121.66 86.48-1.587 171.91 42.581 221.1 113.725 33.59 47.871 50.52 107.113 47.61 165.563-3.44 85.69-51.84 167.678-124.83 212.639-56.08 35.705-126.16 48.664-191.49 35.969-84.63-15.604-159.21-75.111-193.33-153.925-36.23-80.401-28.56-178.787 20.1-252.311m193.07 5.818c-39.15 8.463-74.32 34.647-93.63 69.822-17.98 31.737-22.74 70.615-12.95 105.791 9.52 36.233 34.11 67.97 66.38 86.484 32.27 18.513 71.94 23.533 107.65 13.753 36.23-9.786 67.96-34.382 86.48-66.916 18.24-32.004 23.27-71.409 13.49-107.113-9.79-36.498-34.91-68.764-68.24-87.277-29.89-16.66-65.86-21.685-99.18-14.544z" fill="#221e1f" stroke="#221e1f"/><path d="m286.342 322.765c49.457-63.739 137.264-95.476 215.813-75.376 50.78 11.902 94.154 45.49 124.04 87.542 9.257 14.282 18.778 29.093 22.481 46.019 7.405 24.332 12.695 49.722 12.166 75.376-.265 23.803-2.645 48.928-15.076 69.822-11.108 17.191-12.694 39.402-27.505 54.482-20.894 23.274-44.697 45.226-72.996 58.979-27.241 14.017-57.92 19.307-88.071 22.216-26.183 2.116-52.102-3.703-76.698-12.431-20.629-8.198-38.878-20.893-58.185-31.472-22.216-16.662-43.11-36.228-55.805-61.095-2.38-2.644-2.38-8.463 2.645-6.612 2.116 1.587 6.348 5.026 8.463 6.612-16.397-26.447-28.563-55.804-32.53-87.013-6.877-51.837 8.727-106.055 41.258-147.049m96.534-53.953c-2.645 1.058-5.554 2.38-7.67 4.496 57.921-24.861 127.743-18.513 180.109 16.398 13.753 12.694 31.738 20.893 41.523 37.291 19.307 26.448 36.234 55.276 44.432 87.013 12.96 74.582-19.835 154.719-81.194 198.887-16.398 12.954-35.969 20.888-55.276 28.563-14.282 5.29-30.15 4.496-44.696 8.992 9.521.265 19.306 4.761 28.828 1.846 16.926-4.491 34.382-8.458 50.25-16.662 28.299-17.191 57.127-35.969 75.641-64.268 2.909-5.022 7.669-9.523 8.198-15.601l1.323-2.378c.264-.267.793-1.058 1.058-1.589 11.108-15.602 12.695-35.178 17.455-53.422 11.108-39.672 6.348-82.781-9.785-120.337-20.894-47.87-60.566-86.749-108.172-107.907-26.183-12.166-55.275-15.339-83.574-16.662-20.365 1.058-39.672 7.934-58.45 15.34m143.876 42.581c15.339 13.488 29.621 27.77 42.052 43.638 23.538 29.886 41.523 67.442 37.026 106.32-2.38 29.093-18.777 54.218-34.117 78.021-13.753 20.629-29.093 40.994-48.928 56.593-9.786 7.934-22.481 11.108-33.853 16.662-10.58 5.025-20.365 11.637-31.738 14.546 16.662 3.443 33.06-2.909 48.4-8.199 41.258-16.133 75.111-48.135 96.005-86.748 15.868-33.33 19.307-71.409 14.81-107.642-8.198-32.796-25.389-62.682-47.341-88.336-8.992-8.992-19.042-18.513-32.266-19.571-3.703-1.317-6.612-3.697-10.05-5.284m-257.072 184.34c18.249 73.26 87.013 131.974 163.182 133.826-19.571-6.348-38.349-14.547-56.862-23.274-18.249-12.431-38.878-21.952-54.747-38.085-24.067-23.536-45.754-51.838-53.424-85.162-1.058 4.232.529 8.464 1.851 12.695z" fill="#d7df20" stroke="#d7df20"/><path d="m504.8 641.46c48.135-12.695 91.245-43.639 118.221-85.691-.529 6.086-5.289 10.58-8.198 15.605-18.514 28.299-47.342 47.077-75.641 64.268-15.868 8.204-33.324 12.171-50.25 16.662-9.522 2.914-19.307-1.587-28.828-1.846 14.546-4.502 30.414-3.708 44.696-8.998z" fill="#221e1f" stroke="#221e1f"/></g></svg>

<?xml version="1.0" encoding="UTF-8" standalone="no"?>
<!DOCTYPE svg PUBLIC "-//W3C//DTD SVG 1.1//EN" "http://www.w3.org/Graphics/SVG/1.1/DTD/svg11.dtd">
<svg width="100%" height="100%" viewBox="0 0 560 400" version="1.1" xmlns="http://www.w3.org/2000/svg" xmlns:xlink="http://www.w3.org/1999/xlink" xml:space="preserve" xmlns:serif="http://www.serif.com/" style="fill-rule:evenodd;clip-rule:evenodd;">
    <g transform="matrix(0.144085,0,0,0.144085,99.9003,135.954)">
        <path d="M377.851,6.715C433.656,-2.806 491.312,-2.013 547.116,9.095C574.622,13.856 600.012,27.08 623.815,40.833C650.791,56.966 678.297,71.776 706.067,86.058C772.98,130.49 827.727,193.965 858.935,268.547C876.655,309.806 887.234,353.973 891.73,398.67C902.309,457.384 896.491,518.214 877.184,574.547C861.844,630.352 826.669,676.9 798.37,726.352C794.403,732.964 788.849,738.782 783.823,744.865C747.326,788.774 704.216,828.445 650.791,850.397C653.172,847.223 654.494,843.785 655.023,840.082C648.94,841.405 642.857,842.997 636.774,844.848C640.212,840.352 645.502,837.967 650.263,834.793C667.718,823.42 684.38,810.99 700.249,797.502C702.893,795.121 706.596,793.799 707.654,790.096C701.307,792.741 697.339,798.824 691.521,802.527C607.682,863.092 502.684,896.416 399.009,887.424C292.161,878.696 190.337,826.858 118.928,746.986C69.471,692.24 33.502,625.327 15.253,553.918C-6.434,471.93 -4.054,383.595 23.452,303.194C39.321,256.646 62.594,212.478 93.803,174.394C142.731,113.299 205.412,61.991 277.614,31.047C310.938,22.319 343.734,12.269 377.851,6.715M383.141,31.84C307.236,45.329 235.827,81.298 177.906,132.077C115.754,186.295 68.677,257.704 43.817,336.254C34.824,380.95 25.303,426.44 25.832,472.195C35.353,540.165 55.983,607.871 94.596,665.263C121.044,704.935 156.219,738.523 195.891,764.442C198.007,765.764 200.387,766.822 202.503,767.616C179.229,751.218 159.393,730.853 139.028,711.018C72.909,644.105 35.882,550.215 36.147,456.326C35.618,375.925 61.008,295.789 105.969,229.14C125.276,209.305 138.235,184.444 156.748,163.55C217.843,105.101 295.599,65.165 377.322,44.535C466.451,31.311 559.282,46.387 640.477,85.265C717.175,121.763 783.823,180.212 826.669,253.737C859.464,309.277 877.448,373.28 879.035,437.548C880.093,414.01 882.209,389.678 875.333,366.668C866.869,331.757 858.935,296.053 842.537,264.051C813.18,214.859 783.03,164.608 739.92,126.259C707.125,97.166 668.776,74.686 628.046,58.553C592.607,49.031 556.902,40.568 521.198,31.576C475.708,23.377 428.631,23.906 383.141,31.84M393.72,94.257C324.427,111.184 260.688,146.888 206.206,192.113C190.601,206.924 175.791,223.057 167.327,243.158C165.476,247.654 164.418,252.679 161.509,256.91C162.302,256.91 163.625,256.646 164.418,256.381C179.493,235.488 195.362,215.123 214.404,197.668C268.093,147.681 339.502,118.589 411.969,112.506C493.692,105.101 577.267,125.465 646.56,168.575C670.363,182.063 692.579,198.196 711.621,218.032C745.474,252.943 769.806,297.111 783.823,343.659C798.634,386.504 810.8,431.994 804.982,477.749C797.312,526.151 796.254,576.663 776.418,622.418C759.492,648.601 743.887,675.583 726.432,701.232C669.569,765.764 596.574,818.66 512.47,839.289C504.536,840.082 497.395,844.578 489.196,843.785C497.395,845.636 504.8,840.876 512.999,840.876C594.458,825.801 670.363,783.743 726.961,723.448C779.856,667.114 815.561,593.854 825.082,516.891C825.346,485.154 825.082,453.681 825.082,421.944C826.14,403.96 821.115,386.504 816.883,369.049C794.931,285.738 742.036,212.214 673.537,160.641C653.436,145.83 632.807,131.284 609.533,121.763C542.091,92.406 466.451,85.529 393.72,94.257M286.342,322.765C253.811,363.759 238.207,417.977 245.084,469.814C249.051,501.025 261.217,530.38 277.614,556.827C275.499,555.241 271.267,551.802 269.151,550.215C264.126,548.364 264.126,554.183 266.506,556.827C279.201,581.688 300.095,601.26 322.311,617.922C341.618,628.501 359.867,641.201 380.496,649.394C405.092,658.122 431.011,663.941 457.194,661.825C487.345,658.91 518.024,653.621 545.265,639.609C573.564,625.856 597.367,603.904 618.261,580.63C633.072,565.555 634.658,543.339 645.766,526.148C658.197,505.254 660.577,480.129 660.842,456.326C661.371,430.672 656.081,405.282 648.676,380.95C644.973,364.024 635.452,349.213 626.195,334.931C596.309,292.879 552.935,259.291 502.155,247.389C423.606,227.289 335.799,259.026 286.342,322.765ZM2201.42,176.245C2272.3,302.929 2342.65,430.407 2413.27,557.356C2441.84,609.194 2471.19,660.502 2499.22,712.604C2452.41,712.34 2405.86,713.133 2359.31,712.34C2307.21,617.128 2253.79,522.71 2201.68,427.498C2162.54,494.146 2125.25,561.852 2087.16,628.765C2071.56,656.535 2055.42,684.036 2040.35,712.075C1994.34,712.869 1948.31,712.34 1902.3,712.604C1931.13,660.767 1960.22,608.929 1989.05,557.092C2059.66,430.143 2130.8,303.194 2201.42,176.245ZM1648.66,180.212C1688.34,179.419 1727.74,179.154 1767.41,180.212C1766.88,289.706 1766.88,398.935 1766.88,508.428C1766.36,535.14 1766.88,561.588 1766.62,588.3C1817.92,588.565 1869.24,588.3 1920.54,588.565C1897.53,629.823 1872.93,670.817 1849.92,712.34C1782.75,712.869 1715.57,712.61 1648.13,712.34C1648.4,627.972 1648.4,543.339 1648.66,458.971C1648.4,365.875 1649.19,273.043 1648.66,180.212ZM1119.71,301.343C1166.79,227.289 1252.48,179.683 1340.55,179.683C1427.03,178.096 1512.46,222.264 1561.65,293.408C1595.24,341.279 1612.17,400.521 1609.26,458.971C1605.82,544.661 1557.42,626.649 1484.43,671.61C1428.35,707.315 1358.27,720.274 1292.94,707.579C1208.31,691.975 1133.73,632.468 1099.61,553.654C1063.38,473.253 1071.05,374.867 1119.71,301.343M1312.78,307.161C1273.63,315.624 1238.46,341.808 1219.15,376.983C1201.17,408.72 1196.41,447.598 1206.2,482.774C1215.72,519.007 1240.31,550.744 1272.58,569.258C1304.85,587.771 1344.52,592.791 1380.23,583.011C1416.46,573.225 1448.19,548.629 1466.71,516.095C1484.95,484.091 1489.98,444.686 1480.2,408.982C1470.41,372.484 1445.29,340.218 1411.96,321.705C1382.07,305.045 1346.1,300.02 1312.78,307.161Z" style="fill:rgb(34,30,31);fill-rule:nonzero;stroke:rgb(34,30,31);stroke-width:0.25px;"/>
        <path d="M286.342,322.765C335.799,259.026 423.606,227.289 502.155,247.389C552.935,259.291 596.309,292.879 626.195,334.931C635.452,349.213 644.973,364.024 648.676,380.95C656.081,405.282 661.371,430.672 660.842,456.326C660.577,480.129 658.197,505.254 645.766,526.148C634.658,543.339 633.072,565.55 618.261,580.63C597.367,603.904 573.564,625.856 545.265,639.609C518.024,653.626 487.345,658.916 457.194,661.825C431.011,663.941 405.092,658.122 380.496,649.394C359.867,641.196 341.618,628.501 322.311,617.922C300.095,601.26 279.201,581.694 266.506,556.827C264.126,554.183 264.126,548.364 269.151,550.215C271.267,551.802 275.499,555.241 277.614,556.827C261.217,530.38 249.051,501.023 245.084,469.814C238.207,417.977 253.811,363.759 286.342,322.765M382.876,268.812C380.231,269.87 377.322,271.192 375.206,273.308C433.127,248.447 502.949,254.795 555.315,289.706C569.068,302.4 587.053,310.599 596.838,326.997C616.145,353.445 633.072,382.273 641.27,414.01C654.23,488.592 621.435,568.729 560.076,612.897C543.678,625.851 524.107,633.785 504.8,641.46C490.518,646.75 474.65,645.956 460.104,650.452C469.625,650.717 479.41,655.213 488.932,652.298C505.858,647.807 523.314,643.84 539.182,635.636C567.481,618.445 596.309,599.667 614.823,571.368C617.732,566.346 622.492,561.845 623.021,555.767L624.344,553.389C624.608,553.122 625.137,552.331 625.402,551.8C636.51,536.198 638.097,516.622 642.857,498.378C653.965,458.706 649.205,415.597 633.072,378.041C612.178,330.171 572.506,291.292 524.9,270.134C498.717,257.968 469.625,254.795 441.326,253.472C420.961,254.53 401.654,261.406 382.876,268.812M526.752,311.393C542.091,324.881 556.373,339.163 568.804,355.031C592.342,384.917 610.327,422.473 605.83,461.351C603.45,490.444 587.053,515.569 571.713,539.372C557.96,560.001 542.62,580.366 522.785,595.965C512.999,603.899 500.304,607.073 488.932,612.627C478.352,617.652 468.567,624.264 457.194,627.173C473.856,630.616 490.254,624.264 505.594,618.974C546.852,602.841 580.705,570.839 601.599,532.226C617.467,498.896 620.906,460.817 616.409,424.584C608.211,391.788 591.02,361.902 569.068,336.248C560.076,327.256 550.026,317.735 536.802,316.677C533.099,315.36 530.19,312.98 526.752,311.393M269.68,495.733C287.929,568.993 356.693,627.707 432.862,629.559C413.291,623.211 394.513,615.012 376,606.285C357.751,593.854 337.122,584.333 321.253,568.2C297.186,544.664 275.499,516.362 267.829,483.038C266.771,487.27 268.358,491.502 269.68,495.733Z" style="fill:rgb(215,223,32);fill-rule:nonzero;stroke:rgb(215,223,32);stroke-width:0.25px;"/>
        <path d="M504.8,641.46C552.935,628.765 596.045,597.821 623.021,555.769C622.492,561.855 617.732,566.349 614.823,571.374C596.309,599.673 567.481,618.451 539.182,635.642C523.314,643.846 505.858,647.813 488.932,652.304C479.41,655.218 469.625,650.717 460.104,650.458C474.65,645.956 490.518,646.75 504.8,641.46Z" style="fill:rgb(34,30,31);fill-rule:nonzero;stroke:rgb(34,30,31);stroke-width:0.25px;"/>
    </g>
</svg>
